X:1
T:Allemande
C:Joseph Bodin de Boismorter
R:Allemande
Z:Transcribed by Frank Nordberg - http://www.musicaviva.com
F:http://abc.musicaviva.com/tunes/boismorter-joseph-bodin-de/boismorter-alm-01.abc
V:1 Program 1 73 %Flute
V:2 Program 1 72 %Piccolo
M:C
L:1/16
K:Em
V:1
b2|b2B2 e2(fg) (f2B2)(B2^d2)|e2f2 (g2fe) ^d4 z2 f2|g2a2 (b2ag) (c'2f2)(b2a2)|
V:2
z2|z8 z4 z2b2|b2B2 e2(fg) (f2B2)(B2^d2)|e2f2 (g2fe) ^d4 z2B2|
%
V:1
(g2fe) (T^d3e) e2 (ba) (ba)(gf)|(g2fe) a6 (ag) (ag)(fe)|(f2ed) g6(gf) (gf)(ed)|
V:2
(e2fg) (Tf3e) e4 z2(e^d)|(e=d)(cB) (c2BA) d6 (dc)|(dc)(BA) (B2AG) (c2BA) (B2G2)|
%
V:1
(e2d2) (c3B) A4 d2d2|(dB)(Bd) e2e2 (e^c)(ce) f2f2|(f^d)(df) g2g2 (ge)(eg) a2a2|
V:2
(c2B2) (A3G) (F2D2) z2F2|G4 z2^G2 A4 z2^A2|B4 z2B2 ^c3c ^d2B2|
%
V:1
(ab)(ga) (Ta3b) b6::b2|(a^g)(fe) (c3B) (c2BA) c2d2|e8- ea(^ga) (TB3A)|
V:2
(e3=d) (T=c3B) B6::z2|z8 z4 z2b2|(a^g)(fe) (c3B) (c2BA) (T^G3A)|
%
V:1
A2 (ab c4) z(dfa b4)|z(ceg a4) z(B^df g4-)|(ga)(fg) (eg)(fe) (^d2cB) (fg)(fb)|
V:2
A4 z(aga d4) z(gfg|c4) z(fef B4) z(ede)|(A2B2) (c2A2) (B2b2) (de)(de)|
%
V:1
(f3g) (fg)(ef) (d3^c) (Tc3B)|(B2d2) ^d4 z2(d2 e4)|z2(e2 f4) z2f2 (gf)(gf)|
V:2
(d3e) (de)(^cd) (B^A)(Bc) (TA3B)|B4 z2(FE F4) z2(GF|G4) z2(AG A4) z2(B2|
%
V:1
e2(c'b) (c'b)(ag) (f2b2)b2 ^d2|e2(ba) (gf)(e^d) (e2b2)(b2a2)|(g3f) (Tf3e) e2 c2 (c2BA)|
V:2
c2)(ag) (ag)(fe) ^d4 z2b2|b2^d2 e2(ba) (gf)(ed) (e2d2)|(e3f) (^d3e) e2 A2 (A2GF)|
%
V:1
(B2e2) (AB)(GA) (F2B2)B2 ^D2|E2(BA) (GF)(E^D) (E2B2)(B2A2)|(G3F) (TF3E) E6:|
V:2
(G2c2) (FG)(EF) ^D4 z2B2|B2^D2 e2(BA) (GF)(E^D) (E2D2)|(E3F) (T^D3E) E6:|
W:
W:
W:  From Musica Viva - http://www.musicaviva.com
W:  the Internet center for free sheet music downloads.
